shader slices(
    vector minj = vector(0, 0, 0),
    vector maxj = vector(1, 1, 1),
    color inside = color(1, 1, 1),
    color outside = color(0, 0, 0),
    output color value = color(1, 0, 1),
) {
    vector celldims = vector(5, 5, 5);
    vector j = P / celldims;
    if (j.x > minj.x && j.x <= maxj.x && j.y > minj.y && j.y <= maxj.y && j.z > minj.z && j.z <= maxj.z) {
        value = inside;
    } else {
        value = outside;
    }
}
