shader vesuvius_scan_small(
  string path = "",
  vector dims = vector(80.96, 78.40, 143.76),
  output float z = 0,
  output color value = color(1, 0, 1),
) {
  vector p = P / dims;
  int zindex =  int(10*dims.z)*p.z;
  value = texture3d(path, p, "subimage", zindex);
  z = p.z;
}
